src/server/app/webroot/images/styleguide/grid.svg

<svg xmlns="http://www.w3.org/2000/svg" viewBox="0 0 30 30"><path d="M5 5V0H.5C.2 0 0 .2 0 .5V5h5zM29.9.2c-.1-.1-.2-.2-.4-.2H6v5h1V3.5c0-.3.2-.5.5-.5s.5.2.5.5V5h2V3.5c0-.3.2-.5.5-.5s.5.2.5.5V5h2V3.5c0-.3.2-.5.5-.5s.5.2.5.5V5h2V3.5c0-.3.2-.5.5-.5s.5.2.5.5V5h2V3.5c0-.3.2-.5.5-.5s.5.2.5.5V5h2V3.5c0-.3.2-.5.5-.5s.5.2.5.5V5h2V3.5c0-.3.2-.5.5-.5s.5.2.5.5V5h2.5c.2 0 .4-.2.5-.4l1-4c0-.1 0-.3-.1-.4zM15.5 6c.3 0 .5.2.5.5v1c0 .3-.2.5-.5.5s-.5-.2-.5-.5v-1c0-.3.2-.5.5-.5H6v9.5c0-.3.2-.5.5-.5h1c.3 0 .5.2.5.5s-.2.5-.5.5h-1c-.3 0-.5-.2-.5-.5V26h13.7c.1 0 .1-.1.2-.1l6-6s.1-.1.1-.2V6H15.5zm-4 10h-1c-.3 0-.5-.2-.5-.5s.2-.5.5-.5h1c.3 0 .5.2.5.5s-.2.5-.5.5zm4.5-.5c0 .3-.2.5-.5.5h-1c-.3 0-.5-.2-.5-.5s.2-.5.5-.5h.5v-.5c0-.3.2-.5.5-.5s.5.2.5.5v1zm0-4c0 .3-.2.5-.5.5s-.5-.2-.5-.5v-1c0-.3.2-.5.5-.5s.5.2.5.5v1zm4 12.8V20h4.3L20 24.3zM3.5 26c-.3 0-.5-.2-.5-.5s.2-.5.5-.5H5v-2H3.5c-.3 0-.5-.2-.5-.5s.2-.5.5-.5H5v-2H3.5c-.3 0-.5-.2-.5-.5s.2-.5.5-.5H5v-2H3.5c-.3 0-.5-.2-.5-.5s.2-.5.5-.5H5v-2H3.5c-.3 0-.5-.2-.5-.5s.2-.5.5-.5H5v-2H3.5c-.3 0-.5-.2-.5-.5s.2-.5.5-.5H5V8H3.5c-.3 0-.5-.2-.5-.5s.2-.5.5-.5H5V6H0v23.5c0 .2.1.3.2.4.1.1.2.1.3.1h.1l4-1c.2-.1.4-.3.4-.5V26H3.5z"/></svg>

<?xml version="1.0" encoding="UTF-8" standalone="no"?>
<svg
   xmlns:dc="http://purl.org/dc/elements/1.1/"
   xmlns:cc="http://creativecommons.org/ns#"
   xmlns:rdf="http://www.w3.org/1999/02/22-rdf-syntax-ns#"
   xmlns:svg="http://www.w3.org/2000/svg"
   xmlns="http://www.w3.org/2000/svg"
   xml:space="preserve"
   style="enable-background:new 0 0 30 30;"
   viewBox="0 0 30 30"
   y="0px"
   x="0px"
   id="Layer_1"
   version="1.1"><metadata
     id="metadata25"><rdf:RDF><cc:Work
         rdf:about=""><dc:format>image/svg+xml</dc:format><dc:type
           rdf:resource="http://purl.org/dc/dcmitype/StillImage" /><dc:title></dc:title></cc:Work></rdf:RDF></metadata><defs
     id="defs23" /><g
     id="g3"><g
       id="g5"><path
         id="path7"
         d="M5,5V0H0.5C0.2,0,0,0.2,0,0.5V5H5z" /></g><g
       id="g9"><path
         id="path11"
         d="M29.9,0.2C29.8,0.1,29.7,0,29.5,0H6v5h1V3.5C7,3.2,7.2,3,7.5,3S8,3.2,8,3.5V5h2V3.5C10,3.2,10.2,3,10.5,3S11,3.2,11,3.5V5    h2V3.5C13,3.2,13.2,3,13.5,3S14,3.2,14,3.5V5h2V3.5C16,3.2,16.2,3,16.5,3S17,3.2,17,3.5V5h2V3.5C19,3.2,19.2,3,19.5,3    S20,3.2,20,3.5V5h2V3.5C22,3.2,22.2,3,22.5,3S23,3.2,23,3.5V5h2V3.5C25,3.2,25.2,3,25.5,3S26,3.2,26,3.5V5h1h1.5    c0.2,0,0.4-0.2,0.5-0.4l1-4C30,0.5,30,0.3,29.9,0.2z" /></g><g
       id="g13"><path
         id="path15"
         d="M15.5,6C15.8,6,16,6.2,16,6.5v1C16,7.8,15.8,8,15.5,8S15,7.8,15,7.5v-1C15,6.2,15.2,6,15.5,6H6v9.5C6,15.2,6.2,15,6.5,15    h1C7.8,15,8,15.2,8,15.5S7.8,16,7.5,16h-1C6.2,16,6,15.8,6,15.5V26h13.5c0.1,0,0.1,0,0.2,0c0.1,0,0.1-0.1,0.2-0.1l6-6    c0,0,0.1-0.1,0.1-0.2c0-0.1,0-0.1,0-0.2V6H15.5z M11.5,16h-1c-0.3,0-0.5-0.2-0.5-0.5s0.2-0.5,0.5-0.5h1c0.3,0,0.5,0.2,0.5,0.5    S11.8,16,11.5,16z M16,15.5c0,0.3-0.2,0.5-0.5,0.5h-1c-0.3,0-0.5-0.2-0.5-0.5s0.2-0.5,0.5-0.5H15v-0.5c0-0.3,0.2-0.5,0.5-0.5    s0.5,0.2,0.5,0.5V15.5z M16,11.5c0,0.3-0.2,0.5-0.5,0.5S15,11.8,15,11.5v-1c0-0.3,0.2-0.5,0.5-0.5s0.5,0.2,0.5,0.5V11.5z M20,24.3    V20h4.3L20,24.3z" /></g><g
       id="g17"><path
         id="path19"
         d="M3.5,26C3.2,26,3,25.8,3,25.5S3.2,25,3.5,25H5v-2H3.5C3.2,23,3,22.8,3,22.5S3.2,22,3.5,22H5v-2H3.5C3.2,20,3,19.8,3,19.5    S3.2,19,3.5,19H5v-2H3.5C3.2,17,3,16.8,3,16.5S3.2,16,3.5,16H5v-2H3.5C3.2,14,3,13.8,3,13.5S3.2,13,3.5,13H5v-2H3.5    C3.2,11,3,10.8,3,10.5S3.2,10,3.5,10H5V8H3.5C3.2,8,3,7.8,3,7.5S3.2,7,3.5,7H5V6H0v23.5c0,0.2,0.1,0.3,0.2,0.4    C0.3,30,0.4,30,0.5,30c0,0,0.1,0,0.1,0l4-1C4.8,28.9,5,28.7,5,28.5v-1V26H3.5z" /></g></g></svg>
